X: 132154
T: Meteorite (The)
C: Joe Liddy
S: "The Leitrim Fiddler" (Dublin 1981)
Z: BB
L: 1/8
M: 4/4
R: reel
Q: 1/4 = 170
K: Ador
dB |: A3B AGED | EAAB GE D2 | EA A2 eABd | e2 de gedB |
A2 AB GABG | A2 BA GE D2 | EA A2 eABd | gedB A2 Bd :|
ea a2 abag | abag edBc | dg g2 gaba | gedB eABd |
ea a2 abag | abag edBA | GABd dega |1 gedB A2 Bd :|\
[2 gedB A4 ||
%%%%%%%%%%%%%%%%%%%%%
